X:89
T: Verschlafener Jaeger
N: Q0152F
O: Mitteleuropa, Deutschland
R: Ballade, Verfuehrung, Versagen, Spott
M: 6/8
L: 1/16
K: G
GB | d3ed2B3AB2 | c4B2A4
GB | d3ed2B3AB2 | c4B2A4
d2 | B3cB2A3GA2 | G3AB2A4
d2 | B3cB2A3GA2 | G6z4

@@@ Tune index: 1692
